assets/icons/24px/stroke/dashboard-24px.svg

<svg width="24" height="24" viewBox="0 0 24 24" fill="none" xmlns="http://www.w3.org/2000/svg">
<path fill-rule="evenodd" clip-rule="evenodd" d="M6.45144 2C6.46758 2 6.48376 2 6.5 2C6.51624 2 6.53243 2 6.54856 2C7.20931 1.99997 7.77911 1.99995 8.24428 2.04727C8.73752 2.09745 9.22279 2.20898 9.66671 2.50559C9.99428 2.72447 10.2755 3.00572 10.4944 3.33329C10.791 3.77721 10.9026 4.26248 10.9527 4.75572C11.0001 5.22089 11 5.79069 11 6.45143V6.54857C11 7.20932 11.0001 7.77912 10.9527 8.24428C10.9026 8.73752 10.791 9.22279 10.4944 9.66671C10.2755 9.99428 9.99428 10.2755 9.66671 10.4944C9.22279 10.791 8.73752 10.9026 8.24428 10.9527C7.77912 11.0001 7.20932 11 6.54857 11H6.45143C5.79069 11 5.22089 11.0001 4.75572 10.9527C4.26248 10.9026 3.77721 10.791 3.33329 10.4944C3.00572 10.2755 2.72447 9.99428 2.50559 9.66671C2.20898 9.22279 2.09745 8.73752 2.04727 8.24428C1.99995 7.77911 1.99997 7.20931 2 6.54856C2 6.53243 2 6.51624 2 6.5C2 6.48376 2 6.46758 2 6.45144C1.99997 5.7907 1.99995 5.22089 2.04727 4.75572C2.09745 4.26248 2.20898 3.77721 2.50559 3.33329C2.72447 3.00572 3.00572 2.72447 3.33329 2.50559C3.77721 2.20898 4.26248 2.09745 4.75572 2.04727C5.22089 1.99995 5.7907 1.99997 6.45144 2ZM4.95813 4.037C4.62303 4.07109 4.50496 4.12809 4.44443 4.16853C4.33524 4.24149 4.24149 4.33524 4.16853 4.44443C4.12809 4.50496 4.07109 4.62303 4.037 4.95813C4.00121 5.30995 4 5.77696 4 6.5C4 7.22305 4.00121 7.69006 4.037 8.04187C4.07109 8.37698 4.12809 8.49505 4.16853 8.55557C4.24149 8.66476 4.33524 8.75851 4.44443 8.83147C4.50496 8.87192 4.62303 8.92892 4.95813 8.963C5.30995 8.99879 5.77696 9 6.5 9C7.22305 9 7.69006 8.99879 8.04187 8.963C8.37698 8.92892 8.49505 8.87192 8.55557 8.83147C8.66476 8.75851 8.75851 8.66476 8.83147 8.55557C8.87192 8.49505 8.92892 8.37698 8.963 8.04187C8.99879 7.69006 9 7.22305 9 6.5C9 5.77696 8.99879 5.30995 8.963 4.95813C8.92892 4.62303 8.87192 4.50496 8.83147 4.44443C8.75851 4.33524 8.66476 4.24149 8.55557 4.16853C8.49505 4.12809 8.37698 4.07109 8.04187 4.037C7.69006 4.00121 7.22305 4 6.5 4C5.77696 4 5.30995 4.00121 4.95813 4.037Z" fill="white"/>
<path fill-rule="evenodd" clip-rule="evenodd" d="M6.45144 13C6.46758 13 6.48376 13 6.5 13C6.51624 13 6.53243 13 6.54856 13C7.20931 13 7.77911 12.9999 8.24428 13.0473C8.73752 13.0974 9.22279 13.209 9.66671 13.5056C9.99428 13.7245 10.2755 14.0057 10.4944 14.3333C10.791 14.7772 10.9026 15.2625 10.9527 15.7557C11.0001 16.2209 11 16.7907 11 17.4514V17.5486C11 18.2093 11.0001 18.7791 10.9527 19.2443C10.9026 19.7375 10.791 20.2228 10.4944 20.6667C10.2755 20.9943 9.99428 21.2755 9.66671 21.4944C9.22279 21.791 8.73752 21.9026 8.24428 21.9527C7.77912 22.0001 7.20932 22 6.54857 22H6.45143C5.79069 22 5.22089 22.0001 4.75572 21.9527C4.26248 21.9026 3.77721 21.791 3.33329 21.4944C3.00572 21.2755 2.72447 20.9943 2.50559 20.6667C2.20898 20.2228 2.09745 19.7375 2.04727 19.2443C1.99995 18.7791 1.99997 18.2093 2 17.5486C2 17.5324 2 17.5162 2 17.5C2 17.4838 2 17.4676 2 17.4514C1.99997 16.7907 1.99995 16.2209 2.04727 15.7557C2.09745 15.2625 2.20898 14.7772 2.50559 14.3333C2.72447 14.0057 3.00572 13.7245 3.33329 13.5056C3.77721 13.209 4.26248 13.0974 4.75572 13.0473C5.22089 12.9999 5.7907 13 6.45144 13ZM4.95813 15.037C4.62303 15.0711 4.50496 15.1281 4.44443 15.1685C4.33524 15.2415 4.24149 15.3352 4.16853 15.4444C4.12809 15.505 4.07109 15.623 4.037 15.9581C4.00121 16.3099 4 16.777 4 17.5C4 18.223 4.00121 18.6901 4.037 19.0419C4.07109 19.377 4.12809 19.495 4.16853 19.5556C4.24149 19.6648 4.33524 19.7585 4.44443 19.8315C4.50496 19.8719 4.62303 19.9289 4.95813 19.963C5.30995 19.9988 5.77696 20 6.5 20C7.22305 20 7.69006 19.9988 8.04187 19.963C8.37698 19.9289 8.49505 19.8719 8.55557 19.8315C8.66476 19.7585 8.75851 19.6648 8.83147 19.5556C8.87192 19.495 8.92892 19.377 8.963 19.0419C8.99879 18.6901 9 18.223 9 17.5C9 16.777 8.99879 16.3099 8.963 15.9581C8.92892 15.623 8.87192 15.505 8.83147 15.4444C8.75851 15.3352 8.66476 15.2415 8.55557 15.1685C8.49505 15.1281 8.37698 15.0711 8.04187 15.037C7.69006 15.0012 7.22305 15 6.5 15C5.77696 15 5.30995 15.0012 4.95813 15.037Z" fill="white"/>
<path fill-rule="evenodd" clip-rule="evenodd" d="M17.4514 2C17.4676 2 17.4838 2 17.5 2C17.5162 2 17.5324 2 17.5486 2C18.2093 1.99997 18.7791 1.99995 19.2443 2.04727C19.7375 2.09745 20.2228 2.20898 20.6667 2.50559C20.9943 2.72447 21.2755 3.00572 21.4944 3.33329C21.791 3.77721 21.9026 4.26248 21.9527 4.75572C22.0001 5.22089 22 5.79069 22 6.45143V6.54857C22 7.20932 22.0001 7.77912 21.9527 8.24428C21.9026 8.73752 21.791 9.22279 21.4944 9.66671C21.2755 9.99428 20.9943 10.2755 20.6667 10.4944C20.2228 10.791 19.7375 10.9026 19.2443 10.9527C18.7791 11.0001 18.2093 11 17.5486 11H17.4514C16.7907 11 16.2209 11.0001 15.7557 10.9527C15.2625 10.9026 14.7772 10.791 14.3333 10.4944C14.0057 10.2755 13.7245 9.99428 13.5056 9.66671C13.209 9.22279 13.0974 8.73752 13.0473 8.24428C12.9999 7.77911 13 7.20931 13 6.54856C13 6.53243 13 6.51624 13 6.5C13 6.48376 13 6.46758 13 6.45144C13 5.7907 12.9999 5.22089 13.0473 4.75572C13.0974 4.26248 13.209 3.77721 13.5056 3.33329C13.7245 3.00572 14.0057 2.72447 14.3333 2.50559C14.7772 2.20898 15.2625 2.09745 15.7557 2.04727C16.2209 1.99995 16.7907 1.99997 17.4514 2ZM15.9581 4.037C15.623 4.07109 15.505 4.12809 15.4444 4.16853C15.3352 4.24149 15.2415 4.33524 15.1685 4.44443C15.1281 4.50496 15.0711 4.62303 15.037 4.95813C15.0012 5.30995 15 5.77696 15 6.5C15 7.22305 15.0012 7.69006 15.037 8.04187C15.0711 8.37698 15.1281 8.49505 15.1685 8.55557C15.2415 8.66476 15.3352 8.75851 15.4444 8.83147C15.505 8.87192 15.623 8.92892 15.9581 8.963C16.3099 8.99879 16.777 9 17.5 9C18.223 9 18.6901 8.99879 19.0419 8.963C19.377 8.92892 19.495 8.87192 19.5556 8.83147C19.6648 8.75851 19.7585 8.66476 19.8315 8.55557C19.8719 8.49505 19.9289 8.37698 19.963 8.04187C19.9988 7.69006 20 7.22305 20 6.5C20 5.77696 19.9988 5.30995 19.963 4.95813C19.9289 4.62303 19.8719 4.50496 19.8315 4.44443C19.7585 4.33524 19.6648 4.24149 19.5556 4.16853C19.495 4.12809 19.377 4.07109 19.0419 4.037C18.6901 4.00121 18.223 4 17.5 4C16.777 4 16.3099 4.00121 15.9581 4.037Z" fill="white"/>
<path fill-rule="evenodd" clip-rule="evenodd" d="M17.4514 13C17.4676 13 17.4838 13 17.5 13C17.5162 13 17.5324 13 17.5486 13C18.2093 13 18.7791 12.9999 19.2443 13.0473C19.7375 13.0974 20.2228 13.209 20.6667 13.5056C20.9943 13.7245 21.2755 14.0057 21.4944 14.3333C21.791 14.7772 21.9026 15.2625 21.9527 15.7557C22.0001 16.2209 22 16.7907 22 17.4514V17.5486C22 18.2093 22.0001 18.7791 21.9527 19.2443C21.9026 19.7375 21.791 20.2228 21.4944 20.6667C21.2755 20.9943 20.9943 21.2755 20.6667 21.4944C20.2228 21.791 19.7375 21.9026 19.2443 21.9527C18.7791 22.0001 18.2093 22 17.5486 22H17.4514C16.7907 22 16.2209 22.0001 15.7557 21.9527C15.2625 21.9026 14.7772 21.791 14.3333 21.4944C14.0057 21.2755 13.7245 20.9943 13.5056 20.6667C13.209 20.2228 13.0974 19.7375 13.0473 19.2443C12.9999 18.7791 13 18.2093 13 17.5486C13 17.5324 13 17.5162 13 17.5C13 17.4838 13 17.4676 13 17.4514C13 16.7907 12.9999 16.2209 13.0473 15.7557C13.0974 15.2625 13.209 14.7772 13.5056 14.3333C13.7245 14.0057 14.0057 13.7245 14.3333 13.5056C14.7772 13.209 15.2625 13.0974 15.7557 13.0473C16.2209 12.9999 16.7907 13 17.4514 13ZM15.9581 15.037C15.623 15.0711 15.505 15.1281 15.4444 15.1685C15.3352 15.2415 15.2415 15.3352 15.1685 15.4444C15.1281 15.505 15.0711 15.623 15.037 15.9581C15.0012 16.3099 15 16.777 15 17.5C15 18.223 15.0012 18.6901 15.037 19.0419C15.0711 19.377 15.1281 19.495 15.1685 19.5556C15.2415 19.6648 15.3352 19.7585 15.4444 19.8315C15.505 19.8719 15.623 19.9289 15.9581 19.963C16.3099 19.9988 16.777 20 17.5 20C18.223 20 18.6901 19.9988 19.0419 19.963C19.377 19.9289 19.495 19.8719 19.5556 19.8315C19.6648 19.7585 19.7585 19.6648 19.8315 19.5556C19.8719 19.495 19.9289 19.377 19.963 19.0419C19.9988 18.6901 20 18.223 20 17.5C20 16.777 19.9988 16.3099 19.963 15.9581C19.9289 15.623 19.8719 15.505 19.8315 15.4444C19.7585 15.3352 19.6648 15.2415 19.5556 15.1685C19.495 15.1281 19.377 15.0711 19.0419 15.037C18.6901 15.0012 18.223 15 17.5 15C16.777 15 16.3099 15.0012 15.9581 15.037Z" fill="white"/>
</svg>

<svg width="24" height="24" fill="none" xmlns="http://www.w3.org/2000/svg"><path fill-rule="evenodd" clip-rule="evenodd" d="M6.451 2h.098c.66 0 1.23 0 1.695.047.494.05.979.162 1.423.459a3 3 0 0 1 .827.827c.297.444.409.93.459 1.423C11 5.22 11 5.79 11 6.45v.098c0 .66 0 1.23-.047 1.695-.05.494-.162.979-.459 1.423a3 3 0 0 1-.827.827c-.444.297-.93.409-1.423.459C7.78 11 7.21 11 6.55 11H6.45c-.66 0-1.23 0-1.695-.047-.494-.05-.979-.162-1.423-.459a3 3 0 0 1-.827-.827c-.297-.444-.409-.93-.459-1.423C2 7.78 2 7.21 2 6.55V6.5v-.049c0-.66 0-1.23.047-1.695.05-.494.162-.979.459-1.423a3 3 0 0 1 .827-.827c.444-.297.93-.409 1.423-.459C5.22 2 5.79 2 6.45 2zM4.958 4.037c-.335.034-.453.091-.514.132a1 1 0 0 0-.275.275c-.04.061-.098.179-.132.514C4.001 5.31 4 5.777 4 6.5c0 .723.001 1.19.037 1.542.034.335.091.453.132.514a1 1 0 0 0 .275.275c.061.04.179.098.514.132C5.31 8.999 5.777 9 6.5 9c.723 0 1.19-.001 1.542-.037.335-.034.453-.091.514-.132a1 1 0 0 0 .275-.275c.04-.06.098-.179.132-.514C8.999 7.69 9 7.223 9 6.5c0-.723-.001-1.19-.037-1.542-.034-.335-.091-.453-.132-.514a1 1 0 0 0-.275-.275c-.06-.04-.179-.098-.514-.132C7.69 4.001 7.223 4 6.5 4c-.723 0-1.19.001-1.542.037zM6.451 13h.098c.66 0 1.23 0 1.695.047.494.05.979.162 1.423.459a3 3 0 0 1 .827.827c.297.444.409.93.459 1.423C11 16.22 11 16.79 11 17.45v.098c0 .66 0 1.23-.047 1.695-.05.494-.162.979-.459 1.423a3 3 0 0 1-.827.827c-.444.297-.93.409-1.423.459C7.78 22 7.21 22 6.55 22H6.45c-.66 0-1.23 0-1.695-.047-.494-.05-.979-.162-1.423-.459a3 3 0 0 1-.827-.827c-.297-.444-.409-.93-.459-1.423C2 18.78 2 18.21 2 17.55V17.5v-.049c0-.66 0-1.23.047-1.695.05-.494.162-.979.459-1.423a3 3 0 0 1 .827-.827c.444-.297.93-.409 1.423-.459C5.22 13 5.79 13 6.45 13zm-1.493 2.037c-.335.034-.453.091-.514.131a1 1 0 0 0-.275.276c-.04.061-.098.179-.132.514C4.001 16.31 4 16.777 4 17.5c0 .723.001 1.19.037 1.542.034.335.091.453.132.514a1 1 0 0 0 .275.275c.061.04.179.098.514.132.352.036.819.037 1.542.037.723 0 1.19-.001 1.542-.037.335-.034.453-.091.514-.132a1 1 0 0 0 .275-.275c.04-.061.098-.179.132-.514.036-.352.037-.819.037-1.542 0-.723-.001-1.19-.037-1.542-.034-.335-.091-.453-.132-.514a1 1 0 0 0-.275-.276c-.06-.04-.179-.097-.514-.131C7.69 15.001 7.223 15 6.5 15c-.723 0-1.19.001-1.542.037zM17.451 2h.098c.66 0 1.23 0 1.695.047.494.05.979.162 1.423.459a3 3 0 0 1 .827.827c.297.444.409.93.459 1.423C22 5.22 22 5.79 22 6.45v.098c0 .66 0 1.23-.047 1.695-.05.494-.162.979-.459 1.423a3 3 0 0 1-.827.827c-.444.297-.93.409-1.423.459C18.78 11 18.21 11 17.55 11h-.098c-.66 0-1.23 0-1.695-.047-.494-.05-.979-.162-1.423-.459a3 3 0 0 1-.827-.827c-.297-.444-.409-.93-.459-1.423C13 7.78 13 7.21 13 6.55V6.5v-.049c0-.66 0-1.23.047-1.695.05-.494.162-.979.459-1.423a3 3 0 0 1 .827-.827c.444-.297.93-.409 1.423-.459C16.22 2 16.79 2 17.45 2zm-1.493 2.037c-.335.034-.453.091-.514.132a1 1 0 0 0-.276.275c-.04.061-.097.179-.131.514C15.001 5.31 15 5.777 15 6.5c0 .723.001 1.19.037 1.542.034.335.091.453.131.514a1 1 0 0 0 .276.275c.061.04.179.098.514.132.352.036.819.037 1.542.037.723 0 1.19-.001 1.542-.037.335-.034.453-.091.514-.132a1 1 0 0 0 .275-.275c.04-.06.098-.179.132-.514.036-.352.037-.819.037-1.542 0-.723-.001-1.19-.037-1.542-.034-.335-.091-.453-.132-.514a1 1 0 0 0-.275-.275c-.061-.04-.179-.098-.514-.132C18.69 4.001 18.223 4 17.5 4c-.723 0-1.19.001-1.542.037zM17.451 13h.098c.66 0 1.23 0 1.695.047.494.05.979.162 1.423.459a3 3 0 0 1 .827.827c.297.444.409.93.459 1.423C22 16.22 22 16.79 22 17.45v.098c0 .66 0 1.23-.047 1.695-.05.494-.162.979-.459 1.423a3 3 0 0 1-.827.827c-.444.297-.93.409-1.423.459C18.78 22 18.21 22 17.55 22h-.098c-.66 0-1.23 0-1.695-.047-.494-.05-.979-.162-1.423-.459a3 3 0 0 1-.827-.827c-.297-.444-.409-.93-.459-1.423C13 18.78 13 18.21 13 17.55V17.5v-.049c0-.66 0-1.23.047-1.695.05-.494.162-.979.459-1.423a3 3 0 0 1 .827-.827c.444-.297.93-.409 1.423-.459C16.22 13 16.79 13 17.45 13zm-1.493 2.037c-.335.034-.453.091-.514.131a1 1 0 0 0-.276.276c-.04.061-.097.179-.131.514-.036.352-.037.819-.037 1.542 0 .723.001 1.19.037 1.542.034.335.091.453.131.514a1 1 0 0 0 .276.275c.061.04.179.098.514.132.352.036.819.037 1.542.037.723 0 1.19-.001 1.542-.037.335-.034.453-.091.514-.132a1 1 0 0 0 .275-.275c.04-.061.098-.179.132-.514.036-.352.037-.819.037-1.542 0-.723-.001-1.19-.037-1.542-.034-.335-.091-.453-.132-.514a1 1 0 0 0-.275-.276c-.061-.04-.179-.097-.514-.131-.352-.036-.819-.037-1.542-.037-.723 0-1.19.001-1.542.037z" fill="#fff"/></svg>
